X: 18834
T: Immigrant, The
R: waltz
M: 3/4
K: Dmajor
|:de|Jf3{a}f ed|JB4 d2|JB2 {cB}A4-|A4 {a}fa|Jb2{c'b} a3f|{a}f3 ede|
Je6-|e2z {a}ede|Jf3{a}f ed|JB4 d2|JB2{cB} A4-|A3z JB>{c}B|
A2 B2 d2|JB4 d2|Je2 f2 Ja2|Jf4 fa|Jb2 {c'b}a3e|Jf2{a} fede|Je6-|e4 de|
e-Jf2{a}f ed|A-JB3 d2|B2 {cB}A4-|A2z2 Jfa|Jb2{c'b} a3e|Jf2{a} fede|e6-|
e3z de|e-Jf2{a}f ed|A-JB3 d2|JB2{cB} A4-|A3z JB>{c}B-|B3FDE-|
E4z E|FA d2 Jc2|B4 de|Jf2Ja3f-|f4{a}fe|{a}f/e/d3-d2|d2z4|
Je6|Ja6|f>{a}f e2 d2|JB6|A2 {c}B2 d2|e>{a}e d2 JB2|{cB}A6-|A3z3|
Je6|Ja6|f>{a}f e>{a}e d2|JB4 c2|d2 e2 Jf2|b2 a2 f2-|{a}fe3-e2-|e2z2 de|
e-Jf2{a}f ed|B4 d2|JB>{c}B A4-|A2z2 JB{c}B|A3F DE|E4 DE|
FA d2 Jc2|JB3z de|Jf2 Ja3f|{a}fe4 {a}ed|d6-|d6:|

